X: 1
T: the Sweet Bells of Glasgow
O: (trad.)
R: Jig
Q: 128
K: G
M: 6/8
Z: Bruce Shawyer
L: 1/8
|: B |\
G>BG DB,D | GBd Bdg | G>BG dBG | FAA AdA |\
BGD B,DG | BGB gdB | ^cde Adc | d3-d2 :|
f |\
d>fd AFA | dfa fad' | d>ef gab | add d2g |\
e>de gbd | c>Bc dBG | FGA DGF | G3-G2f |
d>fd AFA | dfa fad' | d>ef gab | add d2g |\
e>de gbd | c>Bc dBG | FGA DGF | G3-G2f |
d>fd AFA | dfa fad' | d>ef gab | add d2g |\
e>de gbd | c>Bc dBG | FGA DGF | G3-G2 |]
